svgs/thin/dumbbell.svg

<svg xmlns="http://www.w3.org/2000/svg" viewBox="0 0 640 512"><!--! Font Awesome Pro 6.3.0 by @fontawesome - https://fontawesome.com License - https://fontawesome.com/license (Commercial License) Copyright 2023 Fonticons, Inc. --><path d="M632 248H608V128c0-17.67-14.33-32-32-32h-32c-5.957 0-11.22 2.068-16 4.904V96c0-17.67-14.33-32-32-32h-32c-17.67 0-32 14.33-32 32v152h-224V96c0-17.67-14.33-32-32-32h-32c-17.67 0-32 14.33-32 32v4.904C107.2 98.07 101.1 96 96 96H64C46.33 96 32 110.3 32 128v120H8C3.594 248 0 251.6 0 256s3.594 8 8 8H32V384c0 17.67 14.33 32 32 32h32c5.957 0 11.22-2.068 16-4.904V416c0 17.67 14.33 32 32 32h32c17.67 0 32-14.33 32-32V264h224V416c0 17.67 14.33 32 32 32h32c17.67 0 32-14.33 32-32v-4.904C532.8 413.9 538 416 544 416h32c17.67 0 32-14.33 32-32V264h24C636.4 264 640 260.4 640 256S636.4 248 632 248zM96 400H64c-8.824 0-16-7.178-16-16V128c0-8.822 7.176-16 16-16h32c8.824 0 16 7.178 16 16v256C112 392.8 104.8 400 96 400zM192 416c0 8.822-7.176 16-16 16h-32C135.2 432 128 424.8 128 416V96c0-8.822 7.176-16 16-16h32C184.8 80 192 87.18 192 96V416zM512 416c0 8.822-7.176 16-16 16h-32c-8.824 0-16-7.178-16-16V96c0-8.822 7.176-16 16-16h32C504.8 80 512 87.18 512 96V416zM592 384c0 8.822-7.176 16-16 16h-32c-8.824 0-16-7.178-16-16V128c0-8.822 7.176-16 16-16h32c8.824 0 16 7.178 16 16V384z"/></svg>

<svg xmlns="http://www.w3.org/2000/svg" viewBox="0 0 640 512"><!-- Font Awesome Pro 6.0.0-alpha2 by @fontawesome - https://fontawesome.com License - https://fontawesome.com/license (Commercial License) --><path d="M632 248H608V128C608 110.326 593.672 96 576 96H544C538.043 96 532.777 98.068 528 100.904V96C528 78.326 513.672 64 496 64H464C446.328 64 432 78.326 432 96V248H208V96C208 78.326 193.672 64 176 64H144C126.328 64 112 78.326 112 96V100.904C107.223 98.068 101.957 96 96 96H64C46.328 96 32 110.326 32 128V248H8C3.594 248 0 251.594 0 256S3.594 264 8 264H32V384C32 401.674 46.328 416 64 416H96C101.957 416 107.223 413.932 112 411.096V416C112 433.674 126.328 448 144 448H176C193.672 448 208 433.674 208 416V264H432V416C432 433.674 446.328 448 464 448H496C513.672 448 528 433.674 528 416V411.096C532.777 413.932 538.043 416 544 416H576C593.672 416 608 401.674 608 384V264H632C636.406 264 640 260.406 640 256S636.406 248 632 248ZM96 400H64C55.176 400 48 392.822 48 384V128C48 119.178 55.176 112 64 112H96C104.824 112 112 119.178 112 128V384C112 392.822 104.824 400 96 400ZM192 416C192 424.822 184.824 432 176 432H144C135.176 432 128 424.822 128 416V96C128 87.178 135.176 80 144 80H176C184.824 80 192 87.178 192 96V416ZM512 416C512 424.822 504.824 432 496 432H464C455.176 432 448 424.822 448 416V96C448 87.178 455.176 80 464 80H496C504.824 80 512 87.178 512 96V416ZM592 384C592 392.822 584.824 400 576 400H544C535.176 400 528 392.822 528 384V128C528 119.178 535.176 112 544 112H576C584.824 112 592 119.178 592 128V384Z"/></svg>
